src/assets/icons/finger-print-outline.svg

<?xml version="1.0" encoding="UTF-8" standalone="no"?>
<!DOCTYPE svg PUBLIC "-//W3C//DTD SVG 1.1//EN" "http://www.w3.org/Graphics/SVG/1.1/DTD/svg11.dtd">
<!-- Created with Vectornator (http://vectornator.io/) -->
<svg height="100%" stroke-miterlimit="10" style="fill-rule:nonzero;clip-rule:evenodd;stroke-linecap:round;stroke-linejoin:round;" version="1.1" viewBox="0 0 512 512" width="100%" xml:space="preserve" xmlns="http://www.w3.org/2000/svg" xmlns:vectornator="http://vectornator.io" xmlns:xlink="http://www.w3.org/1999/xlink">
<defs/>
<g id="Sin-título" vectornator:layerName="Sin título">
<path d="M390.42 75.28C388.55 75.2847 386.713 74.7874 385.1 73.84C340.72 50.08 302.35 40 256.35 40C210.58 40 167.12 51.28 127.59 73.84C122 77 115.11 74.8 111.87 69C108.869 63.1902 110.895 56.0481 116.5 52.68C159.134 28.4998 207.337 15.857 256.35 16C305.58 16 348.58 27.28 395.74 52.48C401.463 55.6269 403.619 62.7733 400.59 68.56C398.802 72.5932 394.831 75.2172 390.42 75.28ZM59.63 201.28C57.2282 201.263 54.8895 200.509 52.93 199.12C47.6311 195.182 46.4021 187.755 50.15 182.32C73.04 148.72 102.15 122.32 136.84 103.84C209.42 65 302.35 64.72 375.16 103.6C409.84 122.08 438.96 148.24 461.85 181.6C465.582 187.039 464.355 194.453 459.07 198.4C456.576 200.264 453.421 201.012 450.356 200.466C447.29 199.921 444.588 198.13 442.89 195.52C422.09 165.28 395.74 141.52 364.53 124.96C298.19 89.68 213.35 89.68 147.24 125.2C115.8 142 89.45 166 68.65 196.2C66.822 199.439 63.3474 201.396 59.63 201.28ZM204.1 491C201.009 491.03 198.057 489.716 196.01 487.4C175.9 466.48 165 453 149.55 424C133.55 394.48 125.28 358.48 125.28 319.84C125.28 248.56 183.99 190.48 256.12 190.48C328.25 190.48 387 248.56 387 319.84C387.124 324.049 384.949 327.993 381.323 330.134C377.697 332.275 373.193 332.275 369.567 330.134C365.941 327.993 363.766 324.049 363.89 319.84C363.89 261.76 315.57 214.48 256.17 214.48C196.77 214.48 148.4 261.76 148.4 319.84C148.4 354.4 155.79 386.32 169.89 412.24C184.69 439.84 194.89 451.6 212.66 470.32C217.026 475.146 217.026 482.494 212.66 487.32C210.391 489.609 207.322 490.929 204.1 491ZM369.85 446.6C342.34 446.6 318.07 439.4 298.19 425.24C263.819 401.149 243.306 361.853 243.19 319.88C243.013 315.635 245.177 311.635 248.827 309.46C252.476 307.285 257.024 307.285 260.673 309.46C264.323 311.635 266.487 315.635 266.31 319.88C266.389 353.978 283.133 385.884 311.15 405.32C327.56 416.84 346.75 422.32 369.87 422.32C377.922 422.177 385.949 421.374 393.87 419.92C400.11 418.72 406.12 423.04 407.27 429.76C408.49 436.217 404.254 442.444 397.8 443.68C388.592 445.499 379.236 446.463 369.85 446.56L369.85 446.6ZM323.38 496C322.365 495.958 321.358 495.797 320.38 495.52C283.62 484.96 259.58 470.8 234.38 445.12C202.01 411.76 184.22 367.36 184.22 319.84C184.22 280.96 216.12 249.28 255.41 249.28C294.7 249.28 326.61 280.96 326.61 319.84C326.61 345.52 348.11 366.4 374.69 366.4C401.27 366.4 422.77 345.52 422.77 319.84C422.77 229.36 347.64 155.92 255.18 155.92C189.53 155.92 129.43 193.84 102.39 252.64C93.39 272.08 88.75 294.88 88.75 319.84C88.75 338.56 90.36 368.08 104.23 406.48C106.55 412.72 103.54 419.68 97.53 421.84C94.6439 422.939 91.4344 422.814 88.643 421.492C85.8516 420.171 83.7197 417.769 82.74 414.84C71.5867 384.408 65.873 352.251 65.86 319.84C65.86 291.04 71.18 264.84 81.58 242.08C112.33 175.08 180.52 131.68 255.18 131.68C360.36 131.68 445.89 215.92 445.89 319.6C445.89 358.48 413.99 390.16 374.69 390.16C335.39 390.16 303.49 358.48 303.49 319.6C303.5 293.92 282 273 255.42 273C228.84 273 207.34 293.88 207.34 319.56C207.34 360.56 222.6 399 250.57 427.8C272.57 450.36 293.57 462.8 326.16 472.2C332.4 473.88 335.87 480.6 334.25 486.84C333.21 492.057 328.698 495.86 323.38 496Z" fill="#ffffff" fill-rule="nonzero" opacity="1" stroke="none" vectornator:layerName="path"/>
</g>
</svg>

<svg xmlns="http://www.w3.org/2000/svg" width="1em" height="1em" viewBox="0 0 512 512"><path fill="currentColor" d="M390.42 75.28a10.45 10.45 0 0 1-5.32-1.44C340.72 50.08 302.35 40 256.35 40c-45.77 0-89.23 11.28-128.76 33.84C122 77 115.11 74.8 111.87 69a12.4 12.4 0 0 1 4.63-16.32A281.81 281.81 0 0 1 256.35 16c49.23 0 92.23 11.28 139.39 36.48a12 12 0 0 1 4.85 16.08a11.3 11.3 0 0 1-10.17 6.72Zm-330.79 126a11.73 11.73 0 0 1-6.7-2.16a12.26 12.26 0 0 1-2.78-16.8c22.89-33.6 52-60 86.69-78.48c72.58-38.84 165.51-39.12 238.32-.24c34.68 18.48 63.8 44.64 86.69 78a12.29 12.29 0 0 1-2.78 16.8a11.26 11.26 0 0 1-16.18-2.88c-20.8-30.24-47.15-54-78.36-70.56c-66.34-35.28-151.18-35.28-217.29.24c-31.44 16.8-57.79 40.8-78.59 71a10 10 0 0 1-9.02 5.08ZM204.1 491a10.66 10.66 0 0 1-8.09-3.6C175.9 466.48 165 453 149.55 424c-16-29.52-24.27-65.52-24.27-104.16c0-71.28 58.71-129.36 130.84-129.36S387 248.56 387 319.84a11.56 11.56 0 1 1-23.11 0c0-58.08-48.32-105.36-107.72-105.36S148.4 261.76 148.4 319.84c0 34.56 7.39 66.48 21.49 92.4c14.8 27.6 25 39.36 42.77 58.08a12.67 12.67 0 0 1 0 17a12.44 12.44 0 0 1-8.56 3.68Zm165.75-44.4c-27.51 0-51.78-7.2-71.66-21.36a129.1 129.1 0 0 1-55-105.36a11.57 11.57 0 1 1 23.12 0a104.28 104.28 0 0 0 44.84 85.44c16.41 11.52 35.6 17 58.72 17a147.41 147.41 0 0 0 24-2.4c6.24-1.2 12.25 3.12 13.4 9.84a11.92 11.92 0 0 1-9.47 13.92a152.28 152.28 0 0 1-27.95 2.88ZM323.38 496a13 13 0 0 1-3-.48c-36.76-10.56-60.8-24.72-86-50.4c-32.37-33.36-50.16-77.76-50.16-125.28c0-38.88 31.9-70.56 71.19-70.56s71.2 31.68 71.2 70.56c0 25.68 21.5 46.56 48.08 46.56s48.08-20.88 48.08-46.56c0-90.48-75.13-163.92-167.59-163.92c-65.65 0-125.75 37.92-152.79 96.72c-9 19.44-13.64 42.24-13.64 67.2c0 18.72 1.61 48.24 15.48 86.64c2.32 6.24-.69 13.2-6.7 15.36a11.34 11.34 0 0 1-14.79-7a276.39 276.39 0 0 1-16.88-95c0-28.8 5.32-55 15.72-77.76c30.75-67 98.94-110.4 173.6-110.4c105.18 0 190.71 84.24 190.71 187.92c0 38.88-31.9 70.56-71.2 70.56s-71.2-31.68-71.2-70.56c.01-25.68-21.49-46.6-48.07-46.6s-48.08 20.88-48.08 46.56c0 41 15.26 79.44 43.23 108.24c22 22.56 43 35 75.59 44.4c6.24 1.68 9.71 8.4 8.09 14.64a11.39 11.39 0 0 1-10.87 9.16Z"/></svg>
